svg/logo/react_line.svg

<?xml version="1.0" encoding="UTF-8"?>
<svg width="24px" height="24px" viewBox="0 0 24 24" version="1.1" xmlns="http://www.w3.org/2000/svg" xmlns:xlink="http://www.w3.org/1999/xlink">
    <title>react_line</title>
    <g id="页面-1" stroke="none" stroke-width="1" fill="none" fill-rule="evenodd">
        <g id="Logo" transform="translate(-624.000000, -96.000000)" fill-rule="nonzero">
            <g id="react_line" transform="translate(624.000000, 96.000000)">
                 <path d="M24,0 L24,24 L0,24 L0,0 L24,0 Z M12.5934901,23.257841 L12.5819402,23.2595131 L12.5108777,23.2950439 L12.4918791,23.2987469 L12.4918791,23.2987469 L12.4767152,23.2950439 L12.4056548,23.2595131 C12.3958229,23.2563662 12.3870493,23.2590235 12.3821421,23.2649074 L12.3780323,23.275831 L12.360941,23.7031097 L12.3658947,23.7234994 L12.3769048,23.7357139 L12.4804777,23.8096931 L12.4953491,23.8136134 L12.4953491,23.8136134 L12.5071152,23.8096931 L12.6106902,23.7357139 L12.6232938,23.7196733 L12.6232938,23.7196733 L12.6266527,23.7031097 L12.609561,23.275831 C12.6075724,23.2657013 12.6010112,23.2592993 12.5934901,23.257841 L12.5934901,23.257841 Z M12.8583906,23.1452862 L12.8445485,23.1473072 L12.6598443,23.2396597 L12.6498822,23.2499052 L12.6498822,23.2499052 L12.6471943,23.2611114 L12.6650943,23.6906389 L12.6699349,23.7034178 L12.6699349,23.7034178 L12.678386,23.7104931 L12.8793402,23.8032389 C12.8914285,23.8068999 12.9022333,23.8029875 12.9078286,23.7952264 L12.9118235,23.7811639 L12.8776777,23.1665331 C12.8752882,23.1545897 12.8674102,23.1470016 12.8583906,23.1452862 L12.8583906,23.1452862 Z M12.1430473,23.1473072 C12.1332178,23.1423925 12.1221763,23.1452606 12.1156365,23.1525954 L12.1099173,23.1665331 L12.0757714,23.7811639 C12.0751323,23.7926639 12.0828099,23.8018602 12.0926481,23.8045676 L12.108256,23.8032389 L12.3092106,23.7104931 L12.3186497,23.7024347 L12.3186497,23.7024347 L12.3225043,23.6906389 L12.340401,23.2611114 L12.337245,23.2485176 L12.337245,23.2485176 L12.3277531,23.2396597 L12.1430473,23.1473072 Z" id="MingCute" fill-rule="nonzero"></path>
                <path d="M12.5822,3.48869 C14.1408,2.2962 15.9785,1.59536 17.5002,2.47392 C19.022,3.35248 19.3339,5.2944 19.0804,7.24046 C19.0491,7.48134 19.0085,7.72885 18.9589,7.9825 C19.2034,8.06633 19.4381,8.15498 19.6624,8.24827 C21.4744,9.00184 23.0002,10.2429 23.0002,12 C23.0002,13.7572 21.4744,14.9982 19.6624,15.7518 C19.4381,15.8451 19.2034,15.9338 18.9589,16.0176 C19.0085,16.2713 19.0491,16.5188 19.0804,16.7597 C19.3339,18.7058 19.022,20.6477 17.5002,21.5263 C15.9785,22.4048 14.1408,21.704 12.5822,20.5115 C12.3893,20.3639 12.1952,20.205 12.0004,20.0352 C11.8054,20.2051 11.6113,20.364 11.4183,20.5117 C9.85966,21.7042 8.02196,22.405 6.50024,21.5265 C4.97853,20.6479 4.66662,18.706 4.92004,16.7599 C4.95142,16.519 4.99198,16.2714 5.04167,16.0176 C4.7971,15.9338 4.56243,15.8451 4.33809,15.7518 C2.52604,14.9982 1.00024,13.7572 1.00024,12 C1.00024,10.2429 2.52604,9.00184 4.33809,8.24827 C4.56243,8.15498 4.79709,8.06632 5.04165,7.98249 C4.99196,7.72877 4.95141,7.4812 4.92004,7.24026 C4.66662,5.29421 4.97853,3.35229 6.50024,2.47372 C8.02196,1.59516 9.85966,2.29601 11.4183,3.4885 C11.6113,3.63616 11.8054,3.79509 12.0004,3.965 C12.1952,3.79516 12.3893,3.6363 12.5822,3.48869 Z M6.97883,16.537 C6.94873,16.702 6.92357,16.8625 6.9033,17.0182 C6.66986,18.8108 7.10879,19.5684 7.50024,19.7944 C7.8917,20.0204 8.76726,20.0218 10.203,18.9233 C10.3277,18.8279 10.4541,18.7259 10.5819,18.6173 C10.1153,18.091 9.64978,17.5062 9.19061,16.8665 C8.40711,16.7887 7.66793,16.6779 6.97883,16.537 Z M17.0217,16.537 C16.3326,16.6779 15.5935,16.7887 14.81,16.8665 C14.3509,17.5061 13.8853,18.0909 13.4187,18.6173 C13.5465,18.7258 13.6728,18.8277 13.7975,18.9231 C15.2332,20.0216 16.1088,20.0202 16.5002,19.7942 C16.8917,19.5682 17.3306,18.8106 17.0972,17.018 C17.0769,16.8623 17.0518,16.7019 17.0217,16.537 Z M12.0002,9.00004 C11.4083,9.00004 10.8403,9.0176 10.2977,9.05097 C9.99744,9.5043 9.69817,9.98751 9.40217,10.5002 C9.10622,11.0128 8.83743,11.5135 8.59501,12.0001 C8.83743,12.4867 9.10622,12.9874 9.40217,13.5 C9.69814,14.0127 9.99738,14.4958 10.2976,14.9491 C10.8403,14.9825 11.4083,15 12.0002,15 C12.5922,15 13.1603,14.9825 13.703,14.9491 C14.0032,14.4959 14.3024,14.0128 14.5983,13.5002 C14.8943,12.9875 15.1631,12.4868 15.4056,12.0001 C15.1631,11.5134 14.8943,11.0127 14.5983,10.5 C14.3024,9.98739 14.0031,9.50425 13.7029,9.05098 C13.1602,9.0176 12.5922,9.00004 12.0002,9.00004 Z M5.56042,9.91982 C5.40252,9.97623 5.25102,10.0347 5.10605,10.095 C3.43688,10.7891 3.00024,11.548 3.00024,12 C3.00024,12.4521 3.43688,13.211 5.10605,13.9051 C5.25103,13.9654 5.40254,14.0239 5.56046,14.0803 C5.78295,13.413 6.05662,12.7175 6.38098,12.0001 C6.0566,11.2826 5.78292,10.5871 5.56042,9.91982 Z M18.4401,9.91984 C18.2176,10.5871 17.944,11.2826 17.6196,12.0001 C17.9439,12.7175 18.2176,13.413 18.4401,14.0803 C18.598,14.0238 18.7495,13.9654 18.8944,13.9051 C20.5636,13.211 21.0002,12.4521 21.0002,12 C21.0002,11.548 20.5636,10.7891 18.8944,10.095 C18.7495,10.0347 18.598,9.97625 18.4401,9.91984 Z M12.0001,10.5001 C12.8286,10.5001 13.5001,11.1717 13.5001,12.0001 C13.5001,12.8286 12.8286,13.5001 12.0001,13.5001 C11.1717,13.5001 10.5001,12.8286 10.5001,12.0001 C10.5001,11.1717 11.1717,10.5001 12.0001,10.5001 Z M7.50024,4.20578 C7.10879,4.43178 6.66986,5.18938 6.9033,6.982 C6.92357,7.13769 6.94872,7.29813 6.97881,7.46309 C7.66794,7.32214 8.40717,7.21137 9.19071,7.13356 C9.64984,6.49396 10.1154,5.90921 10.582,5.38292 C10.4541,5.27435 10.3277,5.17234 10.203,5.07692 C8.76726,3.97844 7.8917,3.97977 7.50024,4.20578 Z M16.5002,4.20597 C16.1088,3.97996 15.2332,3.97864 13.7975,5.07711 C13.6728,5.17248 13.5465,5.27444 13.4187,5.38295 C13.8853,5.90924 14.3508,6.49398 14.8099,7.13358 C15.5934,7.21139 16.3326,7.32216 17.0217,7.4631 C17.0518,7.2982 17.0769,7.13783 17.0972,6.9822 C17.3306,5.18957 16.8917,4.43198 16.5002,4.20597 Z" id="形状" fill="#09244B"></path>
            </g>
        </g>
    </g>
</svg>

<svg xmlns="http://www.w3.org/2000/svg" width="24" height="24"><g fill="none" fill-rule="nonzero"><path d="M24 0v24H0V0h24ZM12.593 23.258l-.011.002-.071.035-.02.004-.014-.004-.071-.035c-.01-.004-.019-.001-.024.005l-.004.01-.017.428.005.02.01.013.104.074.015.004.012-.004.104-.074.012-.016.004-.017-.017-.427c-.002-.01-.009-.017-.017-.018Zm.265-.113-.013.002-.185.093-.01.01-.003.011.018.43.005.012.008.007.201.093c.012.004.023 0 .029-.008l.004-.014-.034-.614c-.003-.012-.01-.02-.02-.022Zm-.715.002a.023.023 0 0 0-.027.006l-.006.014-.034.614c0 .012.007.02.017.024l.015-.002.201-.093.01-.008.004-.011.017-.43-.003-.012-.01-.01-.184-.092Z"/><path fill="#09244B" d="M12.582 3.489c1.559-1.193 3.396-1.894 4.918-1.015 1.522.878 1.834 2.82 1.58 4.766-.03.241-.071.489-.121.742.244.084.48.173.703.266C21.474 9.002 23 10.243 23 12c0 1.757-1.526 2.998-3.338 3.752-.224.093-.459.182-.703.266.05.253.09.5.121.742.254 1.946-.058 3.888-1.58 4.766-1.521.879-3.36.178-4.918-1.014a11.797 11.797 0 0 1-.582-.477c-.195.17-.389.329-.582.477-1.558 1.192-3.396 1.893-4.918 1.014-1.521-.878-1.833-2.82-1.58-4.766a11.8 11.8 0 0 1 .122-.742c-.245-.084-.48-.173-.704-.266C2.526 14.998 1 13.757 1 12c0-1.757 1.526-2.998 3.338-3.752.224-.093.46-.182.704-.266-.05-.253-.09-.5-.122-.742-.253-1.946.059-3.888 1.58-4.766 1.522-.879 3.36-.178 4.918 1.015.193.147.387.306.582.476.195-.17.39-.329.582-.476ZM6.98 16.537c-.03.165-.055.326-.076.481-.233 1.793.206 2.55.597 2.776.392.226 1.267.228 2.703-.87a9.5 9.5 0 0 0 .379-.307 21.825 21.825 0 0 1-1.391-1.75 21.837 21.837 0 0 1-2.212-.33Zm10.043 0c-.69.14-1.428.252-2.212.33-.46.64-.925 1.224-1.391 1.75.127.109.254.21.378.306 1.436 1.099 2.312 1.097 2.703.871.392-.226.83-.983.597-2.776a9.572 9.572 0 0 0-.075-.481ZM12 9c-.592 0-1.16.018-1.702.051-.3.453-.6.937-.896 1.45a27.77 27.77 0 0 0-.807 1.5c.242.486.511.986.807 1.499.296.513.595.996.896 1.45.542.033 1.11.05 1.702.05.592 0 1.16-.018 1.703-.05.3-.454.6-.937.895-1.45a27.8 27.8 0 0 0 .808-1.5 27.8 27.8 0 0 0-.808-1.5 27.744 27.744 0 0 0-.895-1.449C13.16 9.018 12.593 9 12 9Zm-6.44.92c-.157.056-.309.115-.454.175C3.436 10.789 3 11.548 3 12c0 .452.437 1.211 2.106 1.905.145.06.297.119.454.175A21.82 21.82 0 0 1 6.381 12a21.831 21.831 0 0 1-.82-2.08Zm12.88 0a21.827 21.827 0 0 1-.82 2.08c.324.717.598 1.413.82 2.08a9.61 9.61 0 0 0 .454-.175C20.564 13.211 21 12.452 21 12c0-.452-.436-1.21-2.106-1.905a9.513 9.513 0 0 0-.454-.175ZM12 10.5a1.5 1.5 0 1 1 0 3 1.5 1.5 0 0 1 0-3ZM7.5 4.206c-.391.226-.83.983-.597 2.776.02.156.046.316.076.481.689-.14 1.428-.252 2.212-.33.459-.639.924-1.224 1.391-1.75a9.62 9.62 0 0 0-.379-.306C8.767 3.978 7.892 3.98 7.5 4.206Zm9 0c-.391-.226-1.267-.227-2.703.871a9.545 9.545 0 0 0-.378.306c.466.526.932 1.111 1.39 1.75.784.078 1.524.19 2.213.33a9.58 9.58 0 0 0 .075-.48c.234-1.793-.205-2.551-.597-2.777Z"/></g></svg>
